public/img/logo.svg

<svg xmlns="http://www.w3.org/2000/svg" fill="none" viewBox="0 0 32768 3859"><path fill="#0C0C0C" d="M1973.9 3844.15c-281.28 0-541.7-48.74-781.27-145.71-239.569-97.22-448.898-231.72-627.727-403.5-178.83-171.77-317.774-374.04-416.574-606.81C49.53 2455.36 0 2201.74 0 1927.52c0-274.21 48.487-521.57 145.722-752.52 97.236-230.942 235.138-431.389 413.967-601.599 178.829-169.95 387.116-303.668 625.121-400.893 237.74-97.226 497.39-145.709 778.66-145.709 281.28 0 553.7 46.137 786.49 137.889 232.53 92.012 437.43 217.911 614.69 377.434L2739.53 1172.4c-90.46-97.23-199.68-173.604-328.2-229.124-128.52-55.52-277.89-83.411-447.86-83.411-145.72 0-282.06 25.284-408.75 75.591-126.69 50.307-234.35 122.514-322.99 216.084-88.63 93.84-157.97 206.71-208.28 338.6-50.316 131.89-75.602 277.86-75.602 437.38 0 159.53 25.025 315.92 75.602 447.82 50.31 131.89 119.91 244.76 208.28 338.59 88.64 93.84 195.26 166.56 320.38 218.7 125.13 52.13 262.25 78.19 411.36 78.19 173.62 0 325.6-26.84 455.68-80.8 130.34-53.7 244-129.29 341.23-226.51l625.13 625.06c-180.66 159.78-384.51 285.68-612.09 377.69-227.58 92.01-494 137.89-799.52 137.89ZM8151.07 3781.59V89.096h932.21V3781.59h-932.21Zm744.78 0v-802.05h1776.05v802.05H8895.85ZM11244.9 3781.59V89.096h932.2V3781.59h-932.2Zm744.7 0v-802.05h1776.1v802.05h-1776.1ZM13968.8 3781.59 15406.4 89.096h901.2l1421.8 3692.494h-979.1L15682.5 677.664h333.4L14932.5 3781.59h-963.7Zm875.1-645.91v-739.49h2041.7v739.49h-2041.7ZM18208.5 3781.59V89.096h916.6V3781.59h-916.6Zm739.6 0v-692.57h776c139 0 251.9-41.7 338.7-125.12 86.8-83.41 130.1-189.23 130.1-317.74 0-90.19-20.1-167.34-60-231.72-39.9-64.13-94.6-115.48-164-153.53-69.6-38.06-154.6-57.35-255.2-57.35h-765.6v-666.5h708.3c125.1 0 226.5-31.28 304.7-93.84 78.2-62.56 117.3-156.13 117.3-281.25s-39.1-223.907-117.3-286.465c-78.2-62.559-178-93.838-299.5-93.838h-713.5V89.097h937.4c232.5 0 432.2 43.529 599.1 130.329 166.5 86.799 295.1 203.053 385.3 349.022 90.2 145.709 135.5 310.706 135.5 494.732 0 242.93-84.2 446.25-252.6 609.42-168.4 163.17-412.4 265.61-731.7 307.32v-317.75c350.6 41.71 621.4 155.36 812.5 341.21 190.8 185.85 286.5 419.14 286.5 700.39 0 204.87-52.1 389.68-156.1 554.68-104.3 165-250.8 293.5-440.1 385.51-189.2 92.02-412.4 137.89-669.2 137.89h-906.4l-.2-.26ZM22838.8 3781.59V89.096h932.2V3781.59h-932.2Zm744.8 0v-802.05h1776v802.05h-1776ZM25562.7 3781.59 27000.1 89.096h901.2l1421.8 3692.494h-979.2L27276.2 677.664h333.4L26526.2 3781.59h-963.5Zm875.1-645.91v-739.49h2041.7v739.49h-2041.7ZM29802.2 3781.59V89.096h916.8V3781.59h-916.8Zm739.6 0v-692.57h776c139 0 251.8-41.7 338.6-125.12 86.8-83.41 130.4-189.23 130.4-317.74 0-90.19-20.1-167.34-60-231.72-39.9-64.13-94.6-115.48-163.9-153.53-69.6-38.06-154.6-57.35-255.3-57.35H30542v-666.5h708.3c125.1 0 226.5-31.28 304.7-93.84 78.2-62.56 117.1-156.13 117.1-281.25s-39.1-223.907-117.1-286.465c-77.9-62.559-178-93.838-299.5-93.838H30542V89.097h937.4c232.6 0 432.3 43.529 599.1 130.329 166.6 86.799 295.1 203.053 385.5 349.022 90.2 145.709 135.3 310.706 135.3 494.732 0 242.93-84.2 446.25-252.6 609.42-168.4 163.17-412.4 265.61-731.7 307.32v-317.75c350.6 41.71 621.5 155.36 812.5 341.21 190.9 185.85 286.5 419.14 286.5 700.39 0 204.87-52.1 389.68-156.1 554.68-104.3 165-251.1 293.5-440 385.51-189.3 92.02-412.4 137.89-669.2 137.89h-906.4l-.5-.26ZM7336.43 1276.92c-95.41-224.17-228.36-420.965-399.1-589.872-170.75-168.907-371.74-298.715-602.71-389.164-230.96-90.448-483.83-135.542-758.33-135.542-274.5 0-527.36 45.094-758.33 135.542-230.96 90.449-431.95 220.257-602.7 389.164-170.75 169.168-303.69 364.922-399.11 587.522-95.41 222.61-143.11 464.5-143.11 725.68 0 261.18 48.49 504.63 145.72 730.62 96.98 226 231.75 422.53 404.32 590.14 172.32 167.34 374.08 297.93 605.05 391.77 230.97 93.57 483.83 140.49 758.33 140.49 274.5 0 521.37-46.13 750.77-138.15 229.4-92.01 429.35-222.6 600.1-391.77 170.74-168.9 303.69-365.7 399.1-590.13 95.41-224.17 143.12-466.84 143.12-728.02s-47.71-503.85-143.12-728.02v-.26Zm-2253.09 146.23-757.03 583.88 757.03 583.87v402.72l-1034.65-840.63v-291.93l1034.65-840.63v402.72Zm471.58 1571.51H5226.2l356.61-1971.62h323.77l-351.92 1971.62h.26Zm1531.78-841.41-1034.66 840.63v-402.72l757.03-583.87-757.03-583.88v-402.72l1034.66 840.63v291.93Z"/></svg>

<svg viewBox="0 0 32768 3859" fill="none" xmlns="http://www.w3.org/2000/svg">
<path d="M1973.9 3844.15C1692.62 3844.15 1432.2 3795.41 1192.63 3698.44C953.061 3601.22 743.732 3466.72 564.903 3294.94C386.073 3123.17 247.129 2920.9 148.329 2688.13C49.53 2455.36 0 2201.74 0 1927.52C0 1653.31 48.4873 1405.95 145.722 1175C242.958 944.058 380.86 743.611 559.689 573.401C738.518 403.451 946.805 269.733 1184.81 172.508C1422.55 75.2817 1682.2 26.7991 1963.47 26.7991C2244.75 26.7991 2517.17 72.9358 2749.96 164.688C2982.49 256.7 3187.39 382.599 3364.65 542.122L2739.53 1172.4C2649.07 1075.17 2539.85 998.796 2411.33 943.276C2282.81 887.756 2133.44 859.865 1963.47 859.865C1817.75 859.865 1681.41 885.149 1554.72 935.456C1428.03 985.763 1320.37 1057.97 1231.73 1151.54C1143.1 1245.38 1073.76 1358.25 1023.45 1490.14C973.134 1622.03 947.848 1768 947.848 1927.52C947.848 2087.05 972.873 2243.44 1023.45 2375.34C1073.76 2507.23 1143.36 2620.1 1231.73 2713.93C1320.37 2807.77 1426.99 2880.49 1552.11 2932.63C1677.24 2984.76 1814.36 3010.82 1963.47 3010.82C2137.09 3010.82 2289.07 2983.98 2419.15 2930.02C2549.49 2876.32 2663.15 2800.73 2760.38 2703.51L3385.51 3328.57C3204.85 3488.35 3001 3614.25 2773.42 3706.26C2545.84 3798.27 2279.42 3844.15 1973.9 3844.15Z" fill="#0C0C0C"/>
<path d="M8151.07 3781.59V89.0965H9083.28V3781.59H8151.07ZM8895.85 3781.59V2979.54H10671.9V3781.59H8895.85Z" fill="#0C0C0C"/>
<path d="M11244.9 3781.59V89.0965H12177.1V3781.59H11244.9ZM11989.6 3781.59V2979.54H13765.7V3781.59H11989.6Z" fill="#0C0C0C"/>
<path d="M13968.8 3781.59L15406.4 89.0965H16307.6L17729.4 3781.59H16750.3L15682.5 677.664H16015.9L14932.5 3781.59H13969H13968.8ZM14843.9 3135.68V2396.19H16885.6V3135.68H14843.9Z" fill="#0C0C0C"/>
<path d="M18208.5 3781.59V89.0965H19125.1V3781.59H18208.5ZM18948.1 3781.59V3089.02H19724.1C19863.1 3089.02 19976 3047.32 20062.8 2963.9C20149.6 2880.49 20192.9 2774.67 20192.9 2646.16C20192.9 2555.97 20172.8 2478.82 20132.9 2414.44C20093 2350.31 20038.3 2298.96 19968.9 2260.91C19899.3 2222.85 19814.3 2203.56 19713.7 2203.56H18948.1V1537.06H19656.4C19781.5 1537.06 19882.9 1505.78 19961.1 1443.22C20039.3 1380.66 20078.4 1287.09 20078.4 1161.97C20078.4 1036.85 20039.3 938.063 19961.1 875.505C19882.9 812.946 19783.1 781.667 19661.6 781.667H18948.1V89.0965H19885.5C20118 89.0965 20317.7 132.626 20484.6 219.426C20651.1 306.225 20779.7 422.479 20869.9 568.448C20960.1 714.157 21005.4 879.154 21005.4 1063.18C21005.4 1306.11 20921.2 1509.43 20752.8 1672.6C20584.4 1835.77 20340.4 1938.21 20021.1 1979.92V1662.17C20371.7 1703.88 20642.5 1817.53 20833.6 2003.38C21024.4 2189.23 21120.1 2422.52 21120.1 2703.77C21120.1 2908.64 21068 3093.45 20964 3258.45C20859.7 3423.45 20713.2 3551.95 20523.9 3643.96C20334.7 3735.98 20111.5 3781.85 19854.7 3781.85H18948.3L18948.1 3781.59Z" fill="#0C0C0C"/>
<path d="M22838.8 3781.59V89.0965H23771V3781.59H22838.8ZM23583.6 3781.59V2979.54H25359.6V3781.59H23583.6Z" fill="#0C0C0C"/>
<path d="M25562.7 3781.59L27000.1 89.0965H27901.3L29323.1 3781.59H28343.9L27276.2 677.664H27609.6L26526.2 3781.59H25562.7ZM26437.8 3135.68V2396.19H28479.5V3135.68H26437.8Z" fill="#0C0C0C"/>
<path d="M29802.2 3781.59V89.0965H30719V3781.59H29802.2ZM30541.8 3781.59V3089.02H31317.8C31456.8 3089.02 31569.6 3047.32 31656.4 2963.9C31743.2 2880.49 31786.8 2774.67 31786.8 2646.16C31786.8 2555.97 31766.7 2478.82 31726.8 2414.44C31686.9 2350.31 31632.2 2298.96 31562.9 2260.91C31493.3 2222.85 31408.3 2203.56 31307.6 2203.56H30542V1537.06H31250.3C31375.4 1537.06 31476.8 1505.78 31555 1443.22C31633.2 1380.66 31672.1 1287.09 31672.1 1161.97C31672.1 1036.85 31633 938.063 31555 875.505C31477.1 812.946 31377 781.667 31255.5 781.667H30542V89.0965H31479.4C31712 89.0965 31911.7 132.626 32078.5 219.426C32245.1 306.225 32373.6 422.479 32464 568.448C32554.2 714.157 32599.3 879.154 32599.3 1063.18C32599.3 1306.11 32515.1 1509.43 32346.7 1672.6C32178.3 1835.77 31934.3 1938.21 31615 1979.92V1662.17C31965.6 1703.88 32236.5 1817.53 32427.5 2003.38C32618.4 2189.23 32714 2422.52 32714 2703.77C32714 2908.64 32661.9 3093.45 32557.9 3258.45C32453.6 3423.45 32306.8 3551.95 32117.9 3643.96C31928.6 3735.98 31705.5 3781.85 31448.7 3781.85H30542.3L30541.8 3781.59Z" fill="#0C0C0C"/>
<path d="M7336.43 1276.92C7241.02 1052.75 7108.07 855.955 6937.33 687.048C6766.58 518.141 6565.59 388.333 6334.62 297.884C6103.66 207.436 5850.79 162.342 5576.29 162.342C5301.79 162.342 5048.93 207.436 4817.96 297.884C4587 388.333 4386.01 518.141 4215.26 687.048C4044.51 856.216 3911.57 1051.97 3816.15 1274.57C3720.74 1497.18 3673.04 1739.07 3673.04 2000.25C3673.04 2261.43 3721.53 2504.88 3818.76 2730.87C3915.74 2956.87 4050.51 3153.4 4223.08 3321.01C4395.4 3488.35 4597.16 3618.94 4828.13 3712.78C5059.1 3806.35 5311.96 3853.27 5586.46 3853.27C5860.96 3853.27 6107.83 3807.14 6337.23 3715.12C6566.63 3623.11 6766.58 3492.52 6937.33 3323.35C7108.07 3154.45 7241.02 2957.65 7336.43 2733.22C7431.84 2509.05 7479.55 2266.38 7479.55 2005.2C7479.55 1744.02 7431.84 1501.35 7336.43 1277.18V1276.92ZM5083.34 1423.15L4326.31 2007.03L5083.34 2590.9V2993.62L4048.69 2152.99V1861.06L5083.34 1020.43V1423.15ZM5554.92 2994.66H5226.2L5582.81 1023.04H5906.58L5554.66 2994.66H5554.92ZM7086.7 2153.25L6052.04 2993.88V2591.16L6809.07 2007.29L6052.04 1423.41V1020.69L7086.7 1861.32V2153.25Z" fill="#0C0C0C"/>
</svg>
